X:6
T:Our Anniversary Waltz
C:Mike Mahar
L:1/8
Q:1/4=170
M:3/4
K:G
D2 |: G3A G2 | d4 d2 | c3B A2 | F3E D2 |
 G3A G2 | d4 d2 | ed c2 e2 | d4 BA | G3A G2 |
 d4 d2 | c3B A2 | F3E D2 | E3F G2 |
 D3G B2 | cA F2 D2 |1 G4 D2 :|2 G4 G2 |
 F3D F2 | A4 A2 | G3A B2 | B3A G2 |
 F3D F2 | A4 A2 | GA B2 c2 | A4 G2 |
 F3D F2 | A4 A2 | G3A B2 |  B3A G2 |
 F3D F2 | A4 B2 | cA F2 D2 | G6 |]

